X:4
T:Road to Lisdoonvarna
R:Slide
M:12/8
K:E Dor
E2B B2A B2c d3|F2A ABA D2E FED|E2B B2A B2c d3|cdc B2A B2E E2D:|
|:e2f gfe d2B Bcd|c2A ABc d2B B3|e2f gfe d2B Bcd|cdc B2A B2E E3:|
